Pods/ProtonCore-UIFoundations/libraries/UIFoundations/Sources/Assets.xcassets/Images/IconSet/ic-brand-wireguard.imageset/ic-brand-wireguard.svg

<svg width="24" height="24" viewBox="0 0 24 24" fill="none" xmlns="http://www.w3.org/2000/svg">
<path d="M14.3348 4.22433C14.3225 4.23206 14.3121 4.24259 14.3045 4.25506C14.2969 4.26753 14.2924 4.2816 14.2912 4.29614C14.2901 4.31069 14.2923 4.3253 14.2978 4.33881C14.3033 4.35233 14.3119 4.36437 14.3229 4.37397C14.3321 4.39021 14.3445 4.40446 14.3593 4.41588C14.3741 4.42729 14.391 4.43566 14.4091 4.44048C14.4271 4.44531 14.446 4.4465 14.4645 4.44398C14.483 4.44147 14.5008 4.4353 14.5169 4.42583C14.5581 4.40509 14.5987 4.38342 14.6437 4.35941L14.7049 4.32691L14.6519 4.28142C14.6173 4.2517 14.5861 4.2248 14.5542 4.19855C14.471 4.12995 14.4019 4.17303 14.3348 4.22433Z" fill="#0C0C14"/>
<path fill-rule="evenodd" clip-rule="evenodd" d="M12 22.5C17.799 22.5 22.5 17.799 22.5 12C22.5 6.20101 17.799 1.5 12 1.5C6.20101 1.5 1.5 6.20101 1.5 12C1.5 17.799 6.20101 22.5 12 22.5ZM15.1245 5.13026C15.3266 5.13768 15.5289 5.1391 15.7312 5.14053C15.8837 5.1416 16.0361 5.14267 16.1885 5.14631C16.277 5.15212 16.365 5.16437 16.4518 5.18294C16.3725 5.30474 16.2829 5.41957 16.1842 5.5262C16.0574 5.64432 15.9141 5.75979 15.7315 5.58027C15.695 5.54434 15.6171 5.54514 15.5479 5.54585C15.5339 5.546 15.5202 5.54614 15.5073 5.54597C15.4321 5.54498 15.3569 5.5437 15.2817 5.54241C15.0043 5.53766 14.7264 5.5329 14.4495 5.54338C14.144 5.55316 13.8395 5.58425 13.5383 5.63642C13.4819 5.64653 13.3975 5.8342 13.4234 5.90343C13.4847 6.06672 13.574 6.24681 13.7063 6.35129C13.9595 6.55119 14.2211 6.7405 14.4827 6.92982C14.7261 7.10599 14.9697 7.28228 15.2064 7.46702C15.6837 7.83952 16.128 8.24765 16.3987 8.80953C16.7514 9.54164 16.7617 10.3093 16.6096 11.0804C16.3557 12.3676 15.7042 13.4341 14.6494 14.2087C14.3365 14.4385 13.9687 14.5952 13.6022 14.7513C13.4709 14.8072 13.3396 14.8631 13.2113 14.9222C12.9884 15.0249 12.7621 15.1202 12.5358 15.2154C12.3275 15.3031 12.1189 15.3909 11.9132 15.4845C11.1395 15.8363 10.7046 16.6761 10.8326 17.5493C10.9499 18.3506 11.6529 19.0193 12.4582 19.1573C13.4241 19.3229 14.4208 18.6951 14.6572 17.7133C14.9229 16.6092 14.323 15.6235 13.2002 15.3247C13.1707 15.3169 13.141 15.3093 13.1 15.2987L12.998 15.2725C13.0948 15.2292 13.1874 15.19 13.2764 15.1522C13.4635 15.0729 13.635 15.0002 13.7973 14.9109C14.2153 14.6809 14.6256 14.4373 15.0278 14.1805C15.1462 14.1047 15.2101 14.1047 15.3111 14.192C16.0834 14.8597 16.5441 15.6903 16.6732 16.7086C16.887 18.3942 16.0891 19.9426 14.5842 20.7363C12.2558 21.9643 9.40661 20.5666 8.89236 17.9852C8.45183 15.7741 10.0123 13.7685 11.8904 13.3813C12.6982 13.2148 13.4368 12.8785 14.011 12.2565C14.3814 11.8551 14.561 11.5107 14.6222 11.3553C14.7362 11.0641 14.7945 10.7541 14.7941 10.4413C14.7818 10.1708 14.7183 9.90503 14.6068 9.65819C14.4108 9.21127 13.6596 8.50032 13.4736 8.35036L11.7049 6.96572C11.6426 6.91437 11.5723 6.9181 11.4202 6.92839C11.2395 6.94065 10.7775 6.96623 10.5781 6.91399C10.6556 6.8553 10.7975 6.78377 10.9448 6.70944C11.1041 6.62913 11.2698 6.54555 11.3678 6.47137C10.9822 6.21082 10.5598 6.18891 10.1417 6.16722C9.93848 6.15668 9.73624 6.14618 9.53971 6.10835C9.67861 5.84968 10.3659 5.45204 10.7569 5.40782C10.7338 5.18947 10.6982 4.97263 10.6503 4.75833C10.6264 4.67046 10.5283 4.58525 10.4428 4.53503C10.296 4.44897 10.143 4.37355 9.98154 4.29397C9.91464 4.26099 9.84629 4.2273 9.77633 4.19184C9.9901 4.05369 10.2378 3.97709 10.4922 3.97044C10.7332 3.96125 10.9743 3.98471 11.209 4.04018C11.6349 4.13745 11.9748 4.07397 12.3137 3.78447C12.2322 3.75167 12.1507 3.71973 12.0695 3.68788C11.8848 3.61548 11.7013 3.54354 11.5217 3.46295C11.2668 3.34677 11.0184 3.2169 10.7775 3.0739C10.9902 3.10345 11.2007 3.14892 11.4109 3.19431C11.8637 3.29212 12.315 3.3896 12.7836 3.32682L12.8011 3.23327L11.2075 2.86229C12.1575 2.77537 13.042 2.76097 13.8795 3.16897C13.9625 3.20937 14.0468 3.24731 14.1311 3.28525C14.2862 3.35509 14.4413 3.42491 14.5877 3.50988C14.6636 3.55395 14.7225 3.62754 14.7813 3.70113C14.8079 3.7343 14.8344 3.76747 14.8625 3.79793C14.8851 3.82247 14.9063 3.84965 14.9276 3.87682C14.9737 3.93581 15.0198 3.99485 15.0801 4.02697C15.4149 4.20498 15.7835 4.21199 16.1589 4.20302L16.1671 4.07713C16.5451 4.19525 16.9703 4.63098 16.9696 4.94922L16.5578 4.94899C16.0832 4.94858 15.6086 4.94817 15.1342 4.95263C15.0896 4.95307 15.0452 4.97544 15.0008 4.99782C14.9802 5.00824 14.9595 5.01865 14.9388 5.02686C14.9584 5.03827 14.9779 5.05259 14.9974 5.0669C15.0394 5.0978 15.0814 5.12866 15.1245 5.13026ZM14.3914 9.8C13.4837 8.05556 11.0613 7.34656 9.16518 8.50658C6.72742 9.9979 6.87093 13.4237 9.10315 14.7888C9.27478 14.8937 9.35222 14.8815 9.46492 14.7294C9.81139 14.2643 10.254 13.8793 10.7626 13.6007C10.8462 13.5541 10.931 13.5097 11.0277 13.4592C11.0755 13.4342 11.1264 13.4076 11.1814 13.3785C10.0711 13.186 9.47768 12.6791 9.40882 11.897C9.33473 11.0551 9.74582 10.3701 10.4964 10.0851C10.8412 9.95929 11.2176 9.94911 11.5687 10.0561C11.9198 10.1631 12.2266 10.3815 12.4426 10.6783C12.5803 10.8666 12.6771 11.0817 12.7265 11.3097C12.7759 11.5377 12.777 11.7736 12.7295 12.002C12.6385 12.4841 12.3525 12.833 11.9931 13.1406C13.2121 12.8554 14.1002 12.1838 14.4763 10.9864C14.5853 10.6396 14.5634 10.1306 14.3914 9.8ZM6.75461 17.1743C7.00258 17.0886 7.24585 17.0045 7.49446 16.9414C7.74613 16.8775 8.00296 16.8342 8.26896 16.7893C8.38794 16.7693 8.50891 16.7489 8.63192 16.7262C8.66605 16.1364 8.86869 15.5687 9.21578 15.0906C8.01774 14.9635 6.60114 16.0776 6.42188 17.2874C6.53429 17.2505 6.64491 17.2123 6.75461 17.1743Z" fill="#0C0C14"/>
</svg>

<svg xmlns="http://www.w3.org/2000/svg" width="24" height="24" viewBox="0 0 24 24">
  <g class="ic-brand-wireguard">
    <g class="Icon">
      <path d="M14.335 4.224a.094.094 0 0 0-.037.115.093.093 0 0 0 .025.035.14.14 0 0 0 .194.052c.041-.02.082-.043.127-.067l.06-.032-.052-.046-.098-.082c-.083-.069-.152-.026-.22.025Z"/>
      <path fill-rule="evenodd" d="M12 22.5c5.799 0 10.5-4.701 10.5-10.5S17.799 1.5 12 1.5 1.5 6.201 1.5 12 6.201 22.5 12 22.5Zm3.124-17.37c.203.008.405.01.607.01l.458.006c.088.006.176.018.263.037-.08.122-.17.237-.268.343-.127.118-.27.234-.453.054-.036-.036-.114-.035-.183-.034h-.04l-.226-.004c-.278-.004-.556-.01-.832.001-.306.01-.61.041-.912.093-.056.01-.14.198-.115.267.062.164.151.344.283.448.254.2.515.39.777.579.243.176.487.352.723.537.478.373.922.78 1.193 1.343.352.732.363 1.5.21 2.27-.253 1.288-.905 2.354-1.96 3.129-.313.23-.68.386-1.047.542-.131.056-.262.112-.39.171-.224.103-.45.198-.676.293-.208.088-.417.176-.623.27-.774.351-1.208 1.191-1.08 2.064.117.802.82 1.47 1.625 1.608.966.166 1.963-.462 2.2-1.444.265-1.104-.335-2.09-1.458-2.388l-.1-.026-.102-.026c.097-.044.19-.083.278-.12.188-.08.359-.153.521-.242.418-.23.829-.474 1.23-.73.12-.076.183-.076.284.011.772.668 1.233 1.498 1.362 2.517.214 1.685-.584 3.234-2.089 4.027-2.328 1.228-5.177-.17-5.692-2.75-.44-2.212 1.12-4.218 2.998-4.605.808-.166 1.547-.502 2.121-1.124.37-.402.55-.746.611-.902.114-.29.172-.6.172-.914a2.138 2.138 0 0 0-.187-.783c-.196-.447-.947-1.158-1.133-1.308l-1.77-1.384c-.061-.052-.132-.048-.284-.038-.18.013-.643.038-.842-.014.078-.059.22-.13.367-.205.16-.08.325-.163.423-.238-.386-.26-.808-.282-1.226-.304a4.39 4.39 0 0 1-.602-.059c.139-.258.826-.656 1.217-.7a5.751 5.751 0 0 0-.107-.65c-.024-.088-.122-.173-.207-.223a7.205 7.205 0 0 0-.461-.241l-.206-.102c.214-.138.462-.215.716-.222.241-.009.482.015.717.07.426.097.766.034 1.105-.256l-.245-.096a7.775 7.775 0 0 1-1.292-.614c.213.03.424.075.634.12.453.098.904.196 1.373.133l.017-.094-1.594-.37c.95-.088 1.835-.102 2.672.306.084.04.168.078.252.116.155.07.31.14.457.225a.753.753 0 0 1 .193.191c.027.033.053.066.082.097.022.024.043.052.065.079.046.059.092.118.152.15.335.178.704.185 1.079.176l.008-.126c.378.118.803.554.803.872h-.412c-.475 0-.95 0-1.424.004a.32.32 0 0 0-.133.045.765.765 0 0 1-.062.029c.02.011.039.026.058.04.042.03.084.062.127.063Zm-.733 4.67c-.907-1.744-3.33-2.453-5.226-1.293-2.438 1.49-2.294 4.917-.062 6.282.172.105.25.093.362-.06a4.02 4.02 0 0 1 1.298-1.128c.083-.047.168-.091.265-.142l.153-.08c-1.11-.193-1.703-.7-1.772-1.482-.074-.842.337-1.527 1.087-1.812a1.69 1.69 0 0 1 2.23 1.225c.05.228.051.464.003.692-.09.482-.377.831-.736 1.139 1.22-.286 2.107-.957 2.483-2.155.11-.346.087-.855-.085-1.186Zm-7.636 7.374c.248-.085.49-.17.74-.233.251-.063.508-.107.774-.152.119-.02.24-.04.363-.063.034-.59.237-1.157.584-1.635-1.198-.127-2.615.987-2.794 2.196l.333-.113Z"/>
    </g>
  </g>
</svg>
